!!!OTL: SPINN SPINNE MEINE LIEBE TOCHTER
!!!ARE: Europa, Mitteleuropa, Deutschland
!!!SCT: Z0119
!!!YEM: Copyright 1995, estate of Helmut Schaffrath.
**kern
*ICvox
*Ivox
*M3/4
*k[f#c#]
*D:
{4A
=1
8.B
16A
8.G
16A
8.B
16c#
=2
4d
4A}
{4A
=3
8.B
16A
8.G
16A
8.B
16c#
=4
4d
4r}
{4f#
=5
8e
8d
8c#
8B
8A
8G#
=6
4A
4A}
{4f#
=7
8e
8d
8c#
8B
8A
8G#
=8
4A
4r}
{4E
=9
8.F#
16E
8.D
16E
8.F#
16G#
=10
4A
4E}
{4E
=11
8.F#
16E
8.D
16E
8.F#
16G#
=12
4A
4E}
{4A
=13
8.B
16A
8.G
16A
8.B
16B
=14
8.d
16A
8.d
16e}
{8.f#
16g
=15
8.a
16g
4f#
4e
=16
4d
4r}
==
!!!AGN: Erzaehlung, lustige Romanze
!!!ONB: ESAC (Essen Associative Code) Database: ZUCCAL
!!!AMT: simple triple
!!!AIN: vox
!!!EED: Helmut Schaffrath
!!!EEV: 1.0
*-
